X:1
T:Title
%%score { ( 1 3 ) | ( 2 4 ) }
L:1/8
M:3/4
K:F
V:1 treble nm="Grand Piano"
V:3 treble 
V:2 bass 
V:4 bass 
V:1
 z2 z2[Q:1/4=92] A2 | Ac A2 F2 | DE F2 A2 | [Ec][EG] [EG]2 [EB]2 |[M:2/4] A_A =A2 |[M:1/4] A2 | %6
[M:3/4] cA [^Fd]2 [Fc]2 | [GB][^FA] B2 d2 |[M:4/4] c3 A F2 G2 |[M:3/4] F6 |[M:1/4] c2 | %11
[M:4/4] z2 c4 z2 | E6 z2 | z2 c4 z2 |[M:3/4] [FA]6 |[M:1/4] c2 |[M:4/4] z2 c4 z2 | [DB]6 z2 | %18
 [Fc]3 [FA] F2 G2 |[M:3/4] F6 |] %20
V:2
 z2 z2 [F,CF]2 | [F,CF][F,A,F] [F,CF]2 [F,A,C]2 | [B,,B,][C,B,C] [F,A,C]2 [F,A,F]2 | %3
 [C,G,][C,C] [C,C]2 [C,C]2 |[M:2/4] [F,CF][F,=B,F] [F,CF]2 |[M:1/4] [F,CF]2 | %6
[M:3/4] [F,A,F][F,A,F] [D,A,]2 [D,D]2 | [G,D][D,D][K:treble] [G,DG]2 [_A,=B,F]2 | %8
[M:4/4] [A,CF]3[K:bass] [F,CF] [C,A,C]2 [C,B,C]2 |[M:3/4] [F,A,C]6 |[M:1/4] [F,A,F]2 | %11
[M:4/4] z2 F4 z2 | C6 z2 | z2 E4 z2 |[M:3/4] [F,C]2 F,F, F,2 |[M:1/4] [F,A,F]2 |[M:4/4] z2 F4 z2 | %17
 [B,,B,]2 B,,B,, B,,2 [=B,,_A,]2 | [C,A,]3 [C,C] [C,A,C]2 [C,B,C]2 |[M:3/4] [F,A,C]6 |] %20
V:3
 x6 | x6 | x6 | x6 |[M:2/4] x4 |[M:1/4] x2 |[M:3/4] x6 | x6 |[M:4/4] x8 |[M:3/4] x6 |[M:1/4] x2 | %11
[M:4/4] d2 z2 A,A,AF | z2 B,B, B,2 c2 | d2 z2 B,B,[DB][EB] |[M:3/4] z2 CC C2 |[M:1/4] x2 | %16
[M:4/4] d2 z2 A,A,Ac | z2 B,B, B,2 [Fd]2 | x8 |[M:3/4] x6 |] %20
V:4
 x6 | x6 | x6 | x6 |[M:2/4] x4 |[M:1/4] x2 |[M:3/4] x6 | x2[K:treble] x4 |[M:4/4] x3[K:bass] x5 | %9
[M:3/4] x6 |[M:1/4] x2 |[M:4/4] [F,A,F]2 [F,A,]2 C,C,[F,A,F][F,A,C] | [G,B,]2 G,G, G,2 [G,B,E]2 | %13
 [G,B,E]2 [G,B,]2 C,C,[C,G,][C,C] |[M:3/4] x6 |[M:1/4] x2 | %16
[M:4/4] [F,A,F]2 [F,A,]2 C,C,[F,A,_E][F,A,E] | x8 | x8 |[M:3/4] x6 |] %20

